X: 166
T: No_98_Clouds_are_Approaching.krn
N: Derived from No_98_Clouds_are_Approaching.krn
%%abc-version 2.0
%%abcx-abcm2ps-target-version 5.9.1 (29 Sep 2008)
%%abc-creator hum2abc beta
%%abcx-conversion-date 2019/03/15 08:37:56
%%humdrum-veritas 189278191
%%humdrum-veritas-data 3991457307
%%linebreak <none>
%%barnumbers 0
L: 1/8
M: 3/4
K: Ab clef=bass
[K:clef=bass][M:3/4]A,G,A,2A,A,/G,/ | 
A,G, F,G,F,2 ||  
[M:2/4]F,2z2 ||  
[M:3/4]G,G,G,2G,G,/F,/ | 
G,F, E,F,D,2 ||  
[M:2/4]D,2z2 | 
F,F,G,2 | 
F,F, (3F,F,F, | 
F,2z2 | 
F,F,G,2 | 
F,F, (3F,F,F, | 
F,2z2 ||  
[M:3/4]F,2F,4 | 
F,F,F,2z2 |]  



